svgs/sharp-solid/border-all.svg

<svg xmlns="http://www.w3.org/2000/svg" viewBox="0 0 448 512"><!--! Font Awesome Pro 6.6.0 by @fontawesome - https://fontawesome.com License - https://fontawesome.com/license (Commercial License) Copyright 2024 Fonticons, Inc. --><path d="M384 96l0 128-128 0 0-128 128 0zm0 192l0 128-128 0 0-128 128 0zM192 224L64 224 64 96l128 0 0 128zM64 288l128 0 0 128L64 416l0-128zM64 32L0 32 0 96 0 416l0 64 64 0 320 0 64 0 0-64 0-320 0-64-64 0L64 32z"/></svg>

<svg xmlns="http://www.w3.org/2000/svg" viewBox="0 0 448 512"><!--! Font Awesome Pro 6.4.0 by @fontawesome - https://fontawesome.com License - https://fontawesome.com/license (Commercial License) Copyright 2023 Fonticons, Inc. --><path d="M384 96V224H256V96H384zm0 192V416H256V288H384zM192 224H64V96H192V224zM64 288H192V416H64V288zM64 32H0V96 416v64H64 384h64V416 96 32H384 64z"/></svg>
